!!!OTL: MEIN LIEBCHEN SIEHST DU DAS GAERTLEIN DORT
!!!ARE: Europa, Mitteleuropa, Deutschland
!!!SCT: F0850
!!!YEM: Copyright 1995, estate of Helmut Schaffrath.
**kern
*ICvox
*Ivox
*M6/8
*k[b-]
*F:
{8c
=1
4f
8c
8B-
8c
8d
=2
4d
8c
8c
8r
8G
=3
4.A
4r}
{8c
=4
4f
8c
8B-
8c
8d
=5
4d
8c
8c
8r
8G
=6
4.A
4r}
{8A
=7
4A
8G
8B-
8A
8d
=8
8c
8f
8d
4c}
{8A
=9
8A
8A
8G
8B-
8A
8d
=10
8c
16g
16f
16e
16d
8c
8r}
{8e-
=11
8d
8r
8c
8B-
8r
8c
=12
4.A
4r}
==
!!!AGN: erzaehlendes Volks - Lied, Ballade
!!!ONB: ESAC (Essen Associative Code) Database: FINK
!!!AMT: compound duple
!!!AIN: vox
!!!EED: Helmut Schaffrath
!!!EEV: 1.0
*-
